X:8933
T:La Gallegada
C:Trad.
Z:Mtodu de Gaita
M:2/4
L:1/8
Q:1/4=100
K:C
|:c3d|edcB|A3/2B/2 AG|F4|
c3d|cB AB|G3/2A/2 GF|[1 E4:|
M:6/8
|[2 E3 E2F||:GBG FEF|G2E E2F|
GBG FEF|F3 D2E|FGF EDE|
F2D D2E|FGF EDE|[1 E3 E2F:|[2 E6||
